public/img/field-15.svg

<svg width="70" height="72" viewBox="0 0 70 72" fill="none" xmlns="http://www.w3.org/2000/svg">
<ellipse cx="56.5" cy="58" rx="13.5" ry="14" fill="#E30020"/>
<path d="M51.5002 30.04C50.79 30.1769 50.1505 30.5591 49.6935 31.1197C49.2365 31.6803 48.9911 32.3837 49.0002 33.107V37.586L46.0002 40.586L45.7072 40.293C45.3558 39.9284 44.9357 39.6372 44.471 39.436C44.0064 39.2348 43.5065 39.1278 43.0002 39.121C42.0081 39.1276 41.059 39.5267 40.3602 40.231L34.3412 45.247C33.607 45.8014 33.0129 46.5201 32.6063 47.3455C32.1998 48.1709 31.9922 49.08 32.0002 50V61C32.0002 61.2652 32.1056 61.5196 32.2931 61.7071C32.4807 61.8946 32.735 62 33.0002 62H42.0002C42.2654 62 42.5198 61.8946 42.7073 61.7071C42.8949 61.5196 43.0002 61.2652 43.0002 61V55.515L49.5812 50.815C49.7142 50.7204 49.822 50.5948 49.8952 50.449L54.8952 40.449C54.9647 40.3095 55.0007 40.1558 55.0002 40V33C55.0005 32.5635 54.9055 32.1323 54.722 31.7363C54.5384 31.3403 54.2707 30.9892 53.9375 30.7074C53.6042 30.4255 53.2135 30.2198 52.7925 30.1045C52.3716 29.9893 51.9306 29.9672 51.5002 30.04ZM53.0002 39.764L48.2172 49.331L41.4172 54.187C41.2881 54.2796 41.183 54.4017 41.1104 54.5431C41.0379 54.6845 41.0001 54.8411 41.0002 55V60H34.0002V50C33.9926 49.3691 34.1378 48.7457 34.4234 48.183C34.7089 47.6204 35.1264 47.1352 35.6402 46.769L41.7072 41.707C41.8703 41.5257 42.0697 41.3807 42.2924 41.2814C42.5152 41.1821 42.7563 41.1308 43.0002 41.1308C43.2441 41.1308 43.4852 41.1821 43.708 41.2814C43.9308 41.3807 44.1301 41.5257 44.2932 41.707L44.5862 42L40.2932 46.293L41.7072 47.707L50.7072 38.707C50.8948 38.5195 51.0002 38.2652 51.0002 38V33.107C50.991 32.8578 51.0681 32.6131 51.2184 32.4141C51.3687 32.2152 51.583 32.0742 51.8252 32.015C51.9691 31.9894 52.1169 31.9957 52.2581 32.0334C52.3994 32.0711 52.5306 32.1393 52.6426 32.2332C52.7547 32.3271 52.8447 32.4444 52.9065 32.5769C52.9683 32.7094 53.0003 32.8538 53.0002 33V39.764Z" fill="#5A2E91"/>
<path d="M49.9995 22C50.0059 18.4278 49.0537 14.9194 47.2421 11.8406C45.4305 8.76191 42.8259 6.22571 39.7001 4.49661C36.5743 2.76751 33.0418 1.90886 29.471 2.01024C25.9003 2.11162 22.4222 3.1693 19.3995 5.07297L19.2575 5.03297L19.2185 5.18397C16.2976 7.05712 13.9145 9.65834 12.3038 12.7318C10.693 15.8052 9.91005 19.245 10.0319 22.7128C10.1537 26.1806 11.176 29.557 12.9985 32.5099C14.8209 35.4627 17.3805 37.8904 20.4257 39.554C23.4709 41.2176 26.8966 42.0599 30.366 41.998C33.8354 41.9361 37.229 40.9722 40.2129 39.201C43.1968 37.4299 45.6682 34.9126 47.3842 31.8966C49.1001 28.8806 50.0015 25.4699 49.9995 22ZM47.9995 22C48.0017 24.4158 47.5149 26.8072 46.5685 29.03C42.9835 24.93 40.9395 21.15 40.5375 17.899C43.1787 18.7413 45.6841 19.9616 47.9755 21.522C47.9795 21.682 47.9995 21.839 47.9995 22ZM43.7105 10.366C45.7997 12.8236 47.1868 15.7996 47.7255 18.98C45.4683 17.6192 43.045 16.5554 40.5155 15.815C40.5335 15.651 40.5475 15.485 40.5765 15.323C40.9382 13.3265 42.0621 11.5489 43.7105 10.366ZM42.3215 8.91397C40.3774 10.3902 39.0546 12.5392 38.6125 14.94C38.5915 15.061 38.5815 15.185 38.5645 15.306C37.0493 14.9622 35.5124 14.722 33.9645 14.587C33.7419 10.9804 32.9407 7.4331 31.5915 4.08097C35.6103 4.43821 39.3909 6.14107 42.3215 8.91397ZM29.3995 4.03097C30.8689 7.32973 31.7404 10.8633 31.9735 14.467C30.355 14.414 28.7348 14.4574 27.1215 14.597C27.1654 13.7916 27.0981 12.984 26.9215 12.197C26.5503 10.8566 25.8933 9.61238 24.9957 8.54992C24.0981 7.48746 22.9811 6.63188 21.7215 6.04197C24.0975 4.80388 26.7217 4.11656 29.3995 4.03097ZM19.6625 7.28797C21.2045 7.90697 24.2245 9.49397 24.9625 12.649C25.1222 13.3582 25.1678 14.0884 25.0975 14.812C20.7294 15.4056 16.4576 16.5674 12.3905 18.268C13.3431 13.8219 15.9406 9.89993 19.6625 7.28797ZM11.9995 22C11.9995 21.525 12.0345 21.058 12.0705 20.593C16.0801 18.7822 20.3199 17.5322 24.6705 16.878C23.6705 20.116 20.7795 24.566 14.1455 30.518C12.7334 27.9011 11.9958 24.9735 11.9995 22ZM15.2205 32.248C21.8815 26.32 25.7745 21.081 26.8355 16.61C28.5664 16.4415 30.3067 16.39 32.0445 16.456C32.1005 22.745 30.3095 30.684 23.6595 38.825C20.2472 37.5346 17.3053 35.2417 15.2205 32.248ZM29.9995 40C28.5537 39.9945 27.1139 39.8139 25.7115 39.462C32.2485 31.172 34.0665 23.079 34.0285 16.586C35.5269 16.73 37.0132 16.9793 38.4765 17.332C38.6765 21.367 41.0655 25.932 45.5975 30.945C44.0239 33.693 41.7531 35.9772 39.0145 37.567C36.2758 39.1569 33.1662 39.9961 29.9995 40Z" fill="#5A2E91"/>
<path d="M11.8258 34.435L10.1758 35.565C12.3845 38.7835 15.3438 41.4156 18.798 43.2337C22.2522 45.0519 26.0973 46.0013 30.0008 46V44C26.4223 44.0013 22.8974 43.131 19.7307 41.4645C16.564 39.798 13.8509 37.3853 11.8258 34.435Z" fill="#5A2E91"/>
<path d="M52 22H54C54.0604 17.9576 53.0227 13.9746 50.9975 10.4757C48.9722 6.97673 46.0353 4.093 42.5 2.13196L41.5 3.86796C44.7273 5.657 47.4086 8.28848 49.2578 11.4818C51.1069 14.675 52.0547 18.3103 52 22Z" fill="#5A2E91"/>
<path d="M9.89432 31.5524L8.10547 32.4468L9.10544 34.4467L10.8943 33.5523L9.89432 31.5524Z" fill="#5A2E91"/>
</svg>

<svg width="70" height="72" fill="none" xmlns="http://www.w3.org/2000/svg"><ellipse cx="56.5" cy="58" rx="13.5" ry="14" fill="#E30020"/><path d="M51.5 30.04a3.084 3.084 0 00-2.5 3.067v4.479l-3 3-.293-.293A3.83 3.83 0 0043 39.121a3.754 3.754 0 00-2.64 1.11l-6.019 5.016A5.892 5.892 0 0032.001 50v11a1 1 0 001 1h9a1 1 0 001-1v-5.485l6.58-4.7a1 1 0 00.314-.366l5-10A1 1 0 0055 40v-7a3 3 0 00-3.5-2.96zm1.5 9.724l-4.783 9.567-6.8 4.856A1 1 0 0041 55v5h-7V50a3.91 3.91 0 011.64-3.231l6.067-5.062a1.74 1.74 0 012.586 0l.293.293-4.293 4.293 1.414 1.414 9-9A1 1 0 0051 38v-4.893a1.083 1.083 0 01.825-1.092A1 1 0 0153 33v6.764z" fill="#5A2E91"/><path d="M50 22A19.962 19.962 0 0019.4 5.073l-.142-.04-.04.151A19.99 19.99 0 1050 22zm-2 0a17.904 17.904 0 01-1.431 7.03c-3.586-4.1-5.63-7.88-6.032-11.131a28.715 28.715 0 017.438 3.623c.005.16.024.317.024.478zm-4.29-11.634a17.92 17.92 0 014.015 8.614 30.63 30.63 0 00-7.21-3.165c.018-.164.032-.33.062-.492a7.816 7.816 0 013.134-4.957zm-1.389-1.452a9.793 9.793 0 00-3.709 6.026c-.02.121-.03.245-.047.366a34.229 34.229 0 00-4.6-.719A33.697 33.697 0 0031.59 4.081a17.92 17.92 0 0110.73 4.833zM29.4 4.031a30.483 30.483 0 012.574 10.436 40.795 40.795 0 00-4.852.13 8.78 8.78 0 00-.2-2.4 9.637 9.637 0 00-5.2-6.155 17.85 17.85 0 017.677-2.011zm-9.737 3.257c1.541.619 4.561 2.206 5.3 5.361.16.71.205 1.44.134 2.163a50.602 50.602 0 00-12.707 3.456 18.028 18.028 0 017.273-10.98zM11.999 22c0-.475.035-.942.071-1.407a48 48 0 0112.6-3.715c-1 3.238-3.89 7.688-10.525 13.64A17.89 17.89 0 0112 22zm3.221 10.248c6.661-5.928 10.554-11.167 11.615-15.638a38.63 38.63 0 015.21-.154c.055 6.289-1.736 14.228-8.386 22.369a18.075 18.075 0 01-8.438-6.577zM30 40a17.898 17.898 0 01-4.288-.538c6.537-8.29 8.354-16.383 8.317-22.876 1.498.144 2.984.393 4.447.746.2 4.035 2.59 8.6 7.121 13.613A18 18 0 0130 40z" fill="#5A2E91"/><path d="M11.826 34.435l-1.65 1.13A24.034 24.034 0 0030 46v-2a22.036 22.036 0 01-18.175-9.565zM52 22h2A22.339 22.339 0 0042.5 2.132l-1 1.736A20.386 20.386 0 0152 22zM9.894 31.552l-1.789.895 1 2 1.79-.895-1-2z" fill="#5A2E91"/></svg>
